img/icon-discounts.svg

<?xml version="1.0" encoding="UTF-8"?>
<svg width="59px" height="71px" viewBox="0 0 59 71" version="1.1" xmlns="http://www.w3.org/2000/svg" xmlns:xlink="http://www.w3.org/1999/xlink">
    <!-- Generator: Sketch 49.3 (51167) - http://www.bohemiancoding.com/sketch -->
    <title>icon-4</title>
    <desc>Created with Sketch.</desc>
    <defs></defs>
    <g id="Pages" stroke="none" stroke-width="1" fill="none" fill-rule="evenodd">
        <g id="Index" transform="translate(-966.000000, -549.000000)" fill="#FFFFFF">
            <g id="item-4" transform="translate(763.000000, 522.000000)">
                <g id="icon-4" transform="translate(203.000000, 26.000000)">
                    <g>
                        <path d="M58.34,21.249863 C57.7735475,20.507395 56.8860967,20.0708439 55.944,20.0712329 L17.274,20.0712329 L14.799,12.7873973 L3.058,12.7873973 C1.40114575,12.7873973 0.058,14.1121438 0.058,15.7463014 C0.058,17.380459 1.40114575,18.7052055 3.058,18.7052055 L10.482,18.7052055 L23.982,58.4383562 L49.141,58.4383562 C50.7978542,58.4383562 52.141,57.1136097 52.141,55.4794521 C52.141,53.8452944 50.7978542,52.5205479 49.141,52.5205479 L28.299,52.5205479 L26.573,47.4420822 L49.693,47.4420822 C51.0310448,47.4419828 52.2073768,46.5681987 52.577,45.2998356 L58.827,23.8477808 C59.08661,22.9543952 58.9063204,21.9926343 58.34,21.249863 Z M50.559,30.7982466 L45.749,30.7982466 L45.749,25.9890411 L51.96,25.9890411 L50.559,30.7982466 Z M32.942,30.7982466 L32.942,25.9890411 L39.749,25.9890411 L39.749,30.7972603 L32.942,30.7972603 L32.942,30.7982466 Z M39.749,36.7160548 L39.749,41.524274 L32.942,41.524274 L32.942,36.7160548 L39.749,36.7160548 Z M26.942,25.9890411 L26.942,30.7972603 L20.919,30.7972603 L19.285,25.9890411 L26.942,25.9890411 Z M22.929,36.7160548 L26.942,36.7160548 L26.942,41.524274 L24.563,41.524274 L22.929,36.7160548 Z M45.749,41.524274 L45.749,36.7160548 L48.835,36.7160548 L47.434,41.524274 L45.749,41.524274 Z" id="Shape" fill-rule="nonzero"></path>
                        <ellipse id="Oval" fill-rule="nonzero" cx="27.406" cy="66.1749041" rx="5.781" ry="5.70180822"></ellipse>
                        <ellipse id="Oval" fill-rule="nonzero" cx="44.844" cy="66.1749041" rx="5.781" ry="5.70180822"></ellipse>
                        <path d="M29.335,10.5524384 L36.882,15.9692055 C37.317862,16.28309 37.8644694,16.4085073 38.3960438,16.316598 C38.9276182,16.2246886 39.3983787,15.9233682 39.7,15.4819726 C40.346,14.5587945 40.13,13.2805479 39.22,12.6266301 L36.847,10.924274 L46.283,5.904 L50.911,17.7534247 L55.258,17.7534247 L49.214,2.27736986 C49.0070745,1.74147992 48.5792737,1.31738848 48.037,1.11057534 C47.4996828,0.908120944 46.8994919,0.947393392 46.394,1.21808219 L33.146,8.26717808 L30.124,6.09830137 C29.2551731,5.47309557 28.0396283,5.64361653 27.382,6.4829589 L18.901,17.1330411 C18.7307971,17.3149283 18.5937771,17.5244834 18.496,17.7524384 L23.602,17.7524384 L29.335,10.5524384 Z" id="Shape" fill-rule="nonzero"></path>
                    </g>
                </g>
            </g>
        </g>
    </g>
</svg>

<svg width="59" height="71" viewBox="0 0 59 71" xmlns="http://www.w3.org/2000/svg"><g fill-rule="nonzero" transform="translate(0 -1)" fill="#FFF"><path d="M58.34 21.25a3.011 3.011 0 00-2.396-1.179h-38.67l-2.475-7.284H3.058c-1.657 0-3 1.325-3 2.96 0 1.633 1.343 2.958 3 2.958h7.424l13.5 39.733h25.159c1.657 0 3-1.324 3-2.959 0-1.634-1.343-2.958-3-2.958H28.299l-1.726-5.079h23.12a2.995 2.995 0 002.884-2.142l6.25-21.452c.26-.894.08-1.855-.487-2.598zm-7.781 9.548h-4.81V25.99h6.211l-1.401 4.81zm-17.617 0V25.99h6.807v4.808h-6.807v.001zm6.807 5.918v4.808h-6.807v-4.808h6.807zM26.942 25.99v4.808h-6.023l-1.634-4.808h7.657zm-4.013 10.727h4.013v4.808h-2.379l-1.634-4.808zm22.82 4.808v-4.808h3.086l-1.401 4.808h-1.685z"/><ellipse cx="27.406" cy="66.175" rx="5.781" ry="5.702"/><ellipse cx="44.844" cy="66.175" rx="5.781" ry="5.702"/><path d="M29.335 10.552l7.547 5.417a2.007 2.007 0 002.818-.487 2.066 2.066 0 00-.48-2.855l-2.373-1.703 9.436-5.02 4.628 11.85h4.347L49.214 2.276a2.037 2.037 0 00-1.177-1.166 1.995 1.995 0 00-1.643.107l-13.248 7.05-3.022-2.17a2.004 2.004 0 00-2.742.385l-8.481 10.65c-.17.182-.307.391-.405.62h5.106l5.733-7.2z"/></g></svg>
